**kern
*clefG2
*k[]
*M3/4
=1-
8a
16b
(8a
4a)
16g
16r
16a
=2
8b
8r
8.cc
8cc
8dd
16r
=3
(2cc
16dd)
8dd
16ee
=4
8ee
16ee
8.dd
8ee
4r
=5
8dd
16dd
4.ee
16ff
16ee
16dd
=6
4r
8ee#
4ff
16gg
16aa
=7
16gg
4aa
4gg#
16aa
16r
16gg-
=8
4ff
4.ee
8ff#
=9
8r
2r
16gg
16gg
=10
16ff
2ff
16ff
16ff
16ff
=11
*-